src/apps/scalable/alacarte.svg

<?xml version="1.0" encoding="UTF-8"?>
<svg xmlns="http://www.w3.org/2000/svg" xmlns:xlink="http://www.w3.org/1999/xlink" width="64" height="64" viewBox="0 0 64 64" version="1.1">
<defs>
<linearGradient id="linear0" gradientUnits="userSpaceOnUse" x1="4" y1="19.5" x2="24" y2="19.5" gradientTransform="matrix(2,0,0,-2,0,68)">
<stop offset="0" style="stop-color:rgb(25.882353%,63.921569%,94.901961%);stop-opacity:1;"/>
<stop offset="1" style="stop-color:rgb(25.882353%,64.313725%,92.156863%);stop-opacity:1;"/>
</linearGradient>
<linearGradient id="linear1" gradientUnits="userSpaceOnUse" x1="16" y1="20" x2="24" y2="20" gradientTransform="matrix(2,0,0,-2,0,68)">
<stop offset="0" style="stop-color:rgb(9.803922%,31.764706%,65.882353%);stop-opacity:1;"/>
<stop offset="0.175" style="stop-color:rgb(9.803922%,33.333333%,69.019608%);stop-opacity:1;"/>
<stop offset="0.505" style="stop-color:rgb(9.803922%,35.294118%,72.54902%);stop-opacity:1;"/>
<stop offset="1" style="stop-color:rgb(9.803922%,35.686275%,73.72549%);stop-opacity:1;"/>
</linearGradient>
</defs>
<g id="surface1">
<path style=" stroke:none;fill-rule:nonzero;fill:url(#linear0);" d="M 45.007812 8 L 10.667969 8 C 9.195312 8 8 9.195312 8 10.667969 L 8 50 L 48 50 L 48 10.992188 C 48 9.339844 46.660156 8 45.007812 8 Z M 45.007812 8 "/>
<path style=" stroke:none;fill-rule:nonzero;fill:url(#linear1);" d="M 32 8 L 45.332031 8 C 46.804688 8 48 9.195312 48 10.667969 L 48 48 L 32 48 Z M 32 8 "/>
<path style=" stroke:none;fill-rule:nonzero;fill:rgb(9.411765%,30.980392%,52.156863%);fill-opacity:1;" d="M 8 48 L 53.332031 48 C 54.804688 48 56 49.195312 56 50.667969 L 56 53.332031 C 56 54.804688 54.804688 56 53.332031 56 L 10.667969 56 C 9.195312 56 8 54.804688 8 53.332031 Z M 8 48 "/>
<path style=" stroke:none;fill-rule:nonzero;fill:rgb(100%,100%,100%);fill-opacity:1;" d="M 15 54 L 13 54 C 12.449219 54 12 53.550781 12 53 L 12 51 C 12 50.449219 12.449219 50 13 50 L 15 50 C 15.550781 50 16 50.449219 16 51 L 16 53 C 16 53.550781 15.550781 54 15 54 Z M 15 54 "/>
<path style=" stroke:none;fill-rule:nonzero;fill:rgb(100%,100%,100%);fill-opacity:1;" d="M 13 12 L 27 12 C 27.550781 12 28 12.449219 28 13 C 28 13.550781 27.550781 14 27 14 L 13 14 C 12.449219 14 12 13.550781 12 13 C 12 12.449219 12.449219 12 13 12 Z M 13 12 "/>
<path style=" stroke:none;fill-rule:nonzero;fill:rgb(100%,100%,100%);fill-opacity:1;" d="M 13 18 L 27 18 C 27.550781 18 28 18.449219 28 19 C 28 19.550781 27.550781 20 27 20 L 13 20 C 12.449219 20 12 19.550781 12 19 C 12 18.449219 12.449219 18 13 18 Z M 13 18 "/>
<path style=" stroke:none;fill-rule:nonzero;fill:rgb(100%,100%,100%);fill-opacity:1;" d="M 35 42 L 45 42 C 45.550781 42 46 42.449219 46 43 C 46 43.550781 45.550781 44 45 44 L 35 44 C 34.449219 44 34 43.550781 34 43 C 34 42.449219 34.449219 42 35 42 Z M 35 42 "/>
</g>
</svg>

<?xml version="1.0" encoding="UTF-8"?>
<svg width="64" height="64" version="1.1" viewBox="0 0 64 64" xmlns="http://www.w3.org/2000/svg">
 <defs>
  <linearGradient id="linear0" x1="4" x2="24" y1="19.5" y2="19.5" gradientTransform="matrix(2,0,0,-2,0,68)" gradientUnits="userSpaceOnUse">
   <stop stop-color="#42a3f2" offset="0"/>
   <stop stop-color="#42a3eb" offset="1"/>
  </linearGradient>
  <linearGradient id="linear1" x1="16" x2="24" y1="20" y2="20" gradientTransform="matrix(2,0,0,-2,0,68)" gradientUnits="userSpaceOnUse">
   <stop stop-color="#1951a8" offset="0"/>
   <stop stop-color="#1954b0" offset=".175"/>
   <stop stop-color="#195ab9" offset=".505"/>
   <stop stop-color="#195bbb" offset="1"/>
  </linearGradient>
 </defs>
 <g transform="matrix(1.1667 0 0 1.1667 -5.3333 -5.3333)">
  <path d="m45.008 8h-34.34c-1.4727 0-2.668 1.1953-2.668 2.668v39.332h40v-39.008c0-1.6523-1.3398-2.9922-2.9922-2.9922z" fill="url(#linear0)"/>
  <path d="m32 8h13.332c1.4727 0 2.668 1.1953 2.668 2.668v37.332h-16z" fill="url(#linear1)"/>
  <path d="m8 48h45.332c1.4727 0 2.668 1.1953 2.668 2.668v2.6641c0 1.4727-1.1953 2.668-2.668 2.668h-42.664c-1.4727 0-2.668-1.1953-2.668-2.668z" fill="#174c85"/>
  <g fill="#fff">
   <path d="m15 54h-2c-0.55078 0-1-0.44922-1-1v-2c0-0.55078 0.44922-1 1-1h2c0.55078 0 1 0.44922 1 1v2c0 0.55078-0.44922 1-1 1z"/>
   <path d="m13 12h14c0.55078 0 1 0.44922 1 1s-0.44922 1-1 1h-14c-0.55078 0-1-0.44922-1-1s0.44922-1 1-1z"/>
   <path d="m13 18h14c0.55078 0 1 0.44922 1 1s-0.44922 1-1 1h-14c-0.55078 0-1-0.44922-1-1s0.44922-1 1-1z"/>
   <path d="m35 42h10c0.55078 0 1 0.44922 1 1s-0.44922 1-1 1h-10c-0.55078 0-1-0.44922-1-1s0.44922-1 1-1z"/>
  </g>
 </g>
</svg>
